X: 1
T: Pawky Adam Glen
M: 3/4
L: 1/8
R: waltz
K: Fdor
|:g2 c2 c2| e2 d4|g2 c2 c2| e2 d e f2|
g2 c2 c2| e2 d4|f2B2 B2|f2 e f g2:|
|:e f g a b2| e2 g4|e f g a b2| e2 f2 g2|
b3 g (a2-|a) f g4|f2 B2 B2|f2 e f g2:|
